!!!COM: Johannes Brahms
!!!CNT: Deutscher
!!!TXO: Deutsche
!!!OTL: In der Fremde
!!!OPS: Op.3
!!!ONM: No. 5
!!!LYR: Eichendorff
!!!ONB: Original key: f# minor
!!!ENC: Ayako Kataoka        
!!!EED: Leigh VanHandel
!!!YOR: C.F. Peters, Brahms Lieder fu2r eine Singstimme mit Klavierbegleitung, Band III, ausgabe fu2r tiefere Stimme
!!!ODT: 1852/
!!NB: Vocal melody and text only encoded.
**kern	**silbe
*clefG2	*
*k[b-]	*
*M4/4	*
*MM[allegro]	*
=5	=5
2r	.
4r	.
{8f	{Aus
8f	der
=6	=6
4f	Hei-
(8e	-mat
8f)	|
4g	hin-
8e	-ter
8e	den
=7	=7
4a	Blit-
4g	-zen
4f}	rot,}
{4a	{da
=8	=8
4a	kom-
8g	-men
8a	die
4b-	Wol-
4g	-ken
=9	=9
4a}	her.}
4r	.
2r	.
=10	=10
4r	.
{2f	{A-
4f	-ber
=11	=11
4f	Va-
8e	-ter
8f	und
4g	Mut-
8e	-ter
8e	sind
=12	=12
4a	lan-
4g	-ge
4f}	tot,}
{4a	{es
=13	=13
4dd	kennt
8cc	mich
8dd	dort
4ee-	kei-
4cc	-ner
=14	=14
4dd	mehr,
2f	kennt
8f	mich
8f	dort
=15	=15
2.f	kei-
4f	-ner
=16	=16
1f}	mehr.}
=17	=17
2r	.
4r	.
{4f	{Wie
=18	=18
4f	bald,
8e	ach
8f	wie
4g	bald
8e	kommt
8e	die
=19	=19
4a	stil-
4g	-le
4f}	Zeit,}
{4a	{da
=20	=20
4a	ru-
8g	-he
8a	ich
4b-}	auch,}
{4g	{und
=21	=21
[1cc	u2-
=22	=22
4cc]	|
4b-	-ber
4a	mir
[4f	rauscht
=23	=23
4f]	|
(8e	die
8f)	|
4g	scho2-
8e	-ne
8e	Wald-
=24	=24
4a	-ein-
4g	-sam-
4f}	-keit,}
4r	.
=25	=25
2r	.
4r	.
{4a	{und
=26	=26
4dd	kei-
(8cc	-ner
8dd)	|
4ee-	kennt
8cc	mich
8cc	mehr
=27	=27
8a}	hier,}
8r	.
{2dd	{kei-
4b-	-ner
=28	=28
4g	kennt
2b-	mich
4g	mehr
=29	=29
2.a}	hier.}
*-	*-
